public/assets/natives_in_tech.svg

<svg width="95" height="100" viewBox="0 0 95 100" fill="none" xmlns="http://www.w3.org/2000/svg">
<path fill-rule="evenodd" clip-rule="evenodd" d="M94.8018 49.1924C93.9111 63.0466 87.1733 75.3254 76.5813 84.4459C65.2674 94.1879 51.2298 102.392 36.5396 99.3604C21.6035 96.2782 11.3083 83.4401 5.05815 69.6865C-0.95772 56.4484 -2.07228 41.4116 4.25427 28.3156C10.6072 15.1651 23.1544 6.51834 37.3984 2.74228C52.4404 -1.24534 69.4577 -1.91384 81.5067 7.83611C93.4222 17.4779 95.7782 34.0053 94.8018 49.1924Z" fill="#C69662"/>
<path d="M68.452 73.0419H25.4748C24.2109 73.0419 23.1877 72.0188 23.1877 70.7549C23.1877 69.4909 24.2109 68.4678 25.4748 68.4678H68.452C69.7159 68.4678 70.739 69.4909 70.739 70.7549C70.739 72.0148 69.7159 73.0419 68.452 73.0419Z" fill="white"/>
<path d="M68.7129 62.4011C66.0166 62.4011 64.5882 61.105 63.5489 60.1581C62.6903 59.3757 62.3452 59.1069 61.4625 59.1069C60.5797 59.1069 60.2387 59.3757 59.376 60.1581C58.3368 61.105 56.9084 62.4011 54.212 62.4011C51.5157 62.4011 50.0872 61.105 49.048 60.1581C48.1894 59.3757 47.8443 59.1069 46.9616 59.1069C46.0788 59.1069 45.7378 59.3757 44.8751 60.1581C43.8359 61.105 42.4075 62.4011 39.7111 62.4011C37.0147 62.4011 35.5863 61.105 34.5471 60.1581C33.6884 59.3757 33.3434 59.1069 32.4606 59.1069C31.5779 59.1069 31.2328 59.3757 30.3742 60.1581C29.3309 61.105 27.9065 62.4011 25.2102 62.4011C23.9463 62.4011 22.9231 61.3779 22.9231 60.114C22.9231 58.85 23.9463 57.8269 25.2102 57.8269C26.0929 57.8269 26.438 57.558 27.2966 56.7756C28.3359 55.8287 29.7643 54.5327 32.4606 54.5327C35.157 54.5327 36.5854 55.8287 37.6246 56.7756C38.4833 57.558 38.8284 57.8269 39.7111 57.8269C40.5938 57.8269 40.9349 57.558 41.7976 56.7756C42.8368 55.8287 44.2652 54.5327 46.9616 54.5327C49.6579 54.5327 51.0863 55.8287 52.1256 56.7756C52.9842 57.558 53.3293 57.8269 54.212 57.8269C55.0948 57.8269 55.4358 57.558 56.2985 56.7756C57.3377 55.8287 58.7661 54.5327 61.4625 54.5327C64.1588 54.5327 65.5873 55.8287 66.6265 56.7756C67.4851 57.558 67.8302 57.8269 68.7129 57.8269C69.9768 57.8269 71 58.85 71 60.114C71 61.3739 69.9768 62.4011 68.7129 62.4011Z" fill="white"/>
<path d="M46.9614 49.6131C40.4492 49.6131 35.1528 44.3167 35.1528 37.8046C35.1568 31.2964 40.4533 26 46.9614 26C53.4736 26 58.77 31.2964 58.77 37.8086C58.77 44.3167 53.4736 49.6131 46.9614 49.6131ZM46.9614 30.5782C42.9731 30.5782 39.731 33.8202 39.731 37.8086C39.731 41.7969 42.9731 45.039 46.9614 45.039C50.9498 45.039 54.1918 41.7969 54.1918 37.8086C54.1918 33.8202 50.9498 30.5782 46.9614 30.5782Z" fill="white"/>
</svg>

<svg fill="none" height="100" width="95" xmlns="http://www.w3.org/2000/svg"><path clip-rule="evenodd" d="M94.802 49.192c-.89 13.855-7.629 26.133-18.22 35.254C65.266 94.188 51.23 102.392 36.54 99.36 21.604 96.278 11.308 83.44 5.058 69.686c-6.016-13.238-7.13-28.274-.804-41.37 6.353-13.15 18.9-21.798 33.144-25.574 15.042-3.987 32.06-4.656 44.109 5.094 11.915 9.642 14.271 26.17 13.295 41.356z" fill="#c69662" fill-rule="evenodd"/><path d="M68.452 73.042H25.475a2.286 2.286 0 1 1 0-4.574h42.977a2.286 2.286 0 1 1 0 4.574zm.26-10.64c-2.695 0-4.124-1.297-5.163-2.244-.859-.782-1.204-1.051-2.087-1.051-.882 0-1.223.269-2.086 1.051-1.04.947-2.468 2.243-5.164 2.243s-4.125-1.296-5.164-2.243c-.859-.782-1.204-1.051-2.086-1.051-.883 0-1.224.269-2.087 1.051-1.04.947-2.468 2.243-5.164 2.243s-4.125-1.296-5.164-2.243c-.859-.782-1.204-1.051-2.086-1.051-.883 0-1.228.269-2.087 1.051-1.043.947-2.467 2.243-5.164 2.243a2.286 2.286 0 1 1 0-4.574c.883 0 1.228-.269 2.087-1.051 1.039-.947 2.467-2.243 5.164-2.243 2.696 0 4.124 1.296 5.164 2.243.858.782 1.203 1.05 2.086 1.05s1.224-.268 2.087-1.05c1.039-.947 2.467-2.243 5.164-2.243 2.696 0 4.124 1.296 5.164 2.243.858.782 1.203 1.05 2.086 1.05s1.224-.268 2.086-1.05c1.04-.947 2.468-2.243 5.164-2.243 2.697 0 4.125 1.296 5.164 2.243.86.782 1.204 1.05 2.087 1.05a2.286 2.286 0 1 1 0 4.575zm-21.75-12.789c-6.513 0-11.81-5.296-11.81-11.808C35.158 31.296 40.454 26 46.963 26c6.512 0 11.808 5.296 11.808 11.809 0 6.508-5.296 11.804-11.809 11.804zm0-19.035a7.237 7.237 0 0 0-7.231 7.23 7.237 7.237 0 0 0 7.23 7.231 7.237 7.237 0 0 0 7.23-7.23 7.237 7.237 0 0 0-7.23-7.23z" fill="#fff"/></svg>
